www/assets/icons/gif_box.svg

<svg xmlns="http://www.w3.org/2000/svg" width="24" height="24" viewBox="0 0 24 24" fill='currentColor'><path d="M19 3H5c-1.1 0-2 .9-2 2v14c0 1.1.9 2 2 2h14c1.1 0 2-.9 2-2V5c0-1.1-.9-2-2-2M9.5 13v-1h1v1c0 .55-.45 1-1 1h-1c-.55 0-1-.45-1-1v-2c0-.55.45-1 1-1h1c.55 0 1 .45 1 1h-2v2zm3 1h-1v-4h1zm4-3h-2v.5H16v1h-1.5V14h-1v-4h3z"/></svg>

<svg width="24" height="24" viewBox="0 0 24 24" xmlns="http://www.w3.org/2000/svg" fill='currentColor'><path d="M19 3H5C3.9 3 3 3.9 3 5V19C3 20.1 3.9 21 5 21H19C20.1 21 21 20.1 21 19V5C21 3.9 20.1 3 19 3ZM9.5 13V12H10.5V13C10.5 13.55 10.05 14 9.5 14H8.5C7.95 14 7.5 13.55 7.5 13V11C7.5 10.45 7.95 10 8.5 10H9.5C10.05 10 10.5 10.45 10.5 11H8.5V13H9.5ZM12.5 14H11.5V10H12.5V14ZM16.5 11H14.5V11.5H16V12.5H14.5V14H13.5V10H16.5V11Z"/></svg>
